X:252
%%annotationfont Times-Roman 13
T:Jig Runrig, The 
C:Joe Buchanan's Scottish Tome - Page 304.2
I:304 2
R:Jig
Z:Carl Allison
L:1/8
M:6/8
K:D
"A7"f/e/ | "D"ddd BAA  | FAA BAA | "G"Bdd "D"AAA | "Em"fee "A"efe |
[2 "@ 15,22 2nd Part 2nd Time" "D"ddd BAA | FAA BAA |"G" Bdd "D"Aff |"A" edd "D"d2 :|
"A7"f| "D"faa "A"eaa |"D" daa "A"caa |"G"Bdd "D"AAA | "Em"fee e2 "A7"g |
"D"faa "A"eaa |"D" daa "A"caa |"G" Bdd "D"Aff | "A7" edd "D"d2 :|

